src/assets/logo.svg

<svg width="283" height="282" viewBox="0 0 283 282" fill="none" xmlns="http://www.w3.org/2000/svg">
<circle cx="141.527" cy="140.942" r="140.942" fill="url(#paint0_linear)" fill-opacity="0.05"/>
<path d="M251.672 131.622C252.65 111.315 238.466 97.8438 222.46 88.5949L212.056 149.718C219.259 149.316 222.78 152.05 224.061 153.337C225.661 154.946 229.663 159.771 224.861 167.412C234.865 165.803 250.491 156.152 251.672 131.622Z" fill="url(#paint1_linear)"/>
<path fill-rule="evenodd" clip-rule="evenodd" d="M115.192 60.4591L102.787 47.9932C121.461 45.7145 170.734 48.6366 218.434 78.5548C219.234 81.7718 218.434 86.5973 218.434 86.5973L222.435 88.6079C225.903 93.5675 231.799 107.669 227.637 124.397C223.476 141.126 216.299 148.257 213.231 149.731C206.829 149.731 195.944 153.431 192.423 169.837C188.902 186.244 182.152 189.81 179.218 189.542L108.789 190.346L62.3701 163.001L55.5674 106.301L68.7728 88.6079L92.3824 69.3059L109.189 62.4698L115.192 60.4591ZM198.371 83.8809C195.266 87.1158 192.362 88.6678 191.533 89.0887C173.398 85.2311 166.864 75.8493 166.864 75.8493C183.97 75.7438 199.409 79.8123 210.705 86.6949C210.705 86.6949 204.59 84.7134 198.371 83.8809Z" fill="url(#paint2_linear)"/>
<path fill-rule="evenodd" clip-rule="evenodd" d="M192.666 169.843C180.172 175.944 165.359 179.476 149.477 179.476C104.833 179.476 68.6413 151.57 68.6413 117.146C68.6413 91.718 88.3892 69.8462 116.705 60.1517C62.8517 63.2392 19.5762 106.286 19.5762 159.402C19.5762 220.703 74.4935 271.355 142.237 271.355C192.824 271.355 234.931 242.172 256.949 203.128C226.654 209.907 190.791 197.018 192.666 169.843Z" fill="url(#paint3_linear)"/>
<defs>
<linearGradient id="paint0_linear" x1="141.527" y1="98.635" x2="141.527" y2="285.59" gradientUnits="userSpaceOnUse">
<stop stop-color="#FF9230"/>
<stop offset="1" stop-color="#FFD5AB"/>
</linearGradient>
<linearGradient id="paint1_linear" x1="225.323" y1="107.693" x2="300.694" y2="126.169" gradientUnits="userSpaceOnUse">
<stop stop-color="#FFC58F"/>
<stop offset="1" stop-color="#FF7C7C"/>
</linearGradient>
<linearGradient id="paint2_linear" x1="97.0144" y1="26.6561" x2="239.635" y2="156.031" gradientUnits="userSpaceOnUse">
<stop stop-color="#FFC58F"/>
<stop offset="1" stop-color="#FF7C7C"/>
</linearGradient>
<linearGradient id="paint3_linear" x1="98.9781" y1="111.327" x2="292.6" y2="252.028" gradientUnits="userSpaceOnUse">
<stop stop-color="#FFC58F"/>
<stop offset="1" stop-color="#FF7C7C"/>
</linearGradient>
</defs>
</svg>

<svg width="283" height="282" fill="none" xmlns="http://www.w3.org/2000/svg"><circle cx="141.527" cy="140.942" r="140.942" fill="url(#paint0_linear)" fill-opacity=".05"/><path d="M251.672 131.622c.978-20.307-13.206-33.778-29.212-43.027l-10.404 61.123c7.203-.402 10.724 2.332 12.005 3.619 1.6 1.609 5.602 6.434.8 14.075 10.004-1.609 25.63-11.26 26.811-35.79z" fill="url(#paint1_linear)"/><path fill-rule="evenodd" clip-rule="evenodd" d="M115.192 60.46l-12.405-12.467c18.674-2.279 67.947.644 115.647 30.562.8 3.217 0 8.042 0 8.042l4.001 2.01c3.468 4.96 9.364 19.062 5.202 35.79-4.161 16.729-11.338 23.86-14.406 25.334-6.402 0-17.287 3.7-20.808 20.106-3.521 16.407-10.271 19.973-13.205 19.705l-70.429.804-46.419-27.345-6.803-56.7 13.206-17.693 23.61-19.302 16.806-6.836 6.003-2.01zm83.179 23.42c-3.105 3.236-6.009 4.788-6.838 5.209-18.135-3.858-24.669-13.24-24.669-13.24 17.106-.105 32.545 3.963 43.841 10.846 0 0-6.115-1.982-12.334-2.814z" fill="url(#paint2_linear)"/><path fill-rule="evenodd" clip-rule="evenodd" d="M192.666 169.843c-12.494 6.101-27.307 9.633-43.189 9.633-44.644 0-80.836-27.906-80.836-62.33 0-25.428 19.748-47.3 48.064-56.994-53.853 3.087-97.129 46.134-97.129 99.25 0 61.301 54.917 111.953 122.661 111.953 50.587 0 92.694-29.183 114.712-68.227-30.295 6.779-66.158-6.11-64.283-33.285z" fill="url(#paint3_linear)"/><defs><linearGradient id="paint0_linear" x1="141.527" y1="98.635" x2="141.527" y2="285.59" gradientUnits="userSpaceOnUse"><stop stop-color="#FF9230"/><stop offset="1" stop-color="#FFD5AB"/></linearGradient><linearGradient id="paint1_linear" x1="225.323" y1="107.693" x2="300.694" y2="126.169" gradientUnits="userSpaceOnUse"><stop stop-color="#FFC58F"/><stop offset="1" stop-color="#FF7C7C"/></linearGradient><linearGradient id="paint2_linear" x1="97.014" y1="26.656" x2="239.635" y2="156.031" gradientUnits="userSpaceOnUse"><stop stop-color="#FFC58F"/><stop offset="1" stop-color="#FF7C7C"/></linearGradient><linearGradient id="paint3_linear" x1="98.978" y1="111.327" x2="292.6" y2="252.028" gradientUnits="userSpaceOnUse"><stop stop-color="#FFC58F"/><stop offset="1" stop-color="#FF7C7C"/></linearGradient></defs></svg>
